HTML/img/Component/Cyan Sudoku.svg

<svg xmlns="http://www.w3.org/2000/svg" xmlns:xlink="http://www.w3.org/1999/xlink" xml:space="preserve" fill="none" stroke="#000" stroke-width="2" viewBox="0 0 347 347"><defs><path id="reuse-0" fill="none" d="M131.354 92.539h13.986v13.986h-13.986zM191.354 92.539h13.986v13.986h-13.986zM171.354 92.539h13.986v13.986h-13.986z" style="fill:#fff;fill-opacity:0;stroke:#000;stroke-width:1.045088;stroke-linejoin:round;stroke-dasharray:none"/><path id="reuse-1" d="M151.354 92.539h13.986v13.986h-13.986zM111.354 92.539h13.986v13.986h-13.986z" style="fill:#000;fill-opacity:1;stroke:#000;stroke-width:1.045088;stroke-linejoin:round;stroke-dasharray:none"/><path id="reuse-2" fill="none" d="M91.354 92.539h13.986v13.986H91.354z" style="fill:#fff;fill-opacity:0;stroke:#000;stroke-width:1.045088;stroke-linejoin:round;stroke-dasharray:none"/><path id="reuse-3" d="M71.354 92.539H85.34v13.986H71.354z" style="fill:#000;fill-opacity:1;stroke:#000;stroke-width:1.045088;stroke-linejoin:round;stroke-dasharray:none"/><path id="reuse-4" fill="none" d="M51.354 92.539H65.34v13.986H51.354zM31.354 92.539H45.34v13.986H31.354z" style="fill:#fff;fill-opacity:0;stroke:#000;stroke-width:1.045088;stroke-linejoin:round;stroke-dasharray:none"/><path id="reuse-5" fill="none" d="M131.354 92.539h13.986v13.986h-13.986zM191.354 92.539h13.986v13.986h-13.986z" style="fill:#fff;fill-opacity:0;stroke:#000;stroke-width:1.045088;stroke-linejoin:round;stroke-dasharray:none"/><path id="reuse-6" d="M171.354 92.539h13.986v13.986h-13.986z" style="fill:#000;fill-opacity:1;stroke:#000;stroke-width:1.045088;stroke-linejoin:round;stroke-dasharray:none"/><path id="reuse-7" fill="none" d="M151.354 92.539h13.986v13.986h-13.986zM111.354 92.539h13.986v13.986h-13.986zM91.354 92.539h13.986v13.986H91.354zM71.354 92.539H85.34v13.986H71.354z" style="fill:#fff;fill-opacity:0;stroke:#000;stroke-width:1.045088;stroke-linejoin:round;stroke-dasharray:none"/><path id="reuse-8" d="M51.354 92.539H65.34v13.986H51.354z" style="fill:#000;fill-opacity:1;stroke:#000;stroke-width:1.045088;stroke-linejoin:round;stroke-dasharray:none"/><path id="reuse-9" fill="none" d="M31.354 92.539H45.34v13.986H31.354z" style="fill:#fff;fill-opacity:0;stroke:#000;stroke-width:1.045088;stroke-linejoin:round;stroke-dasharray:none"/><path id="reuse-10" d="M131.354 92.539h13.986v13.986h-13.986zM191.354 92.539h13.986v13.986h-13.986z" style="fill:#000;fill-opacity:1;stroke:#000;stroke-width:1.045088;stroke-linejoin:round;stroke-dasharray:none"/><path id="reuse-11" fill="none" d="M171.354 92.539h13.986v13.986h-13.986zM151.354 92.539h13.986v13.986h-13.986zM111.354 92.539h13.986v13.986h-13.986z" style="fill:#fff;fill-opacity:0;stroke:#000;stroke-width:1.045088;stroke-linejoin:round;stroke-dasharray:none"/><path id="reuse-12" d="M91.354 92.539h13.986v13.986H91.354z" style="fill:#000;fill-opacity:1;stroke:#000;stroke-width:1.045088;stroke-linejoin:round;stroke-dasharray:none"/><path id="reuse-13" fill="none" d="M71.354 92.539H85.34v13.986H71.354zM51.354 92.539H65.34v13.986H51.354z" style="fill:#fff;fill-opacity:0;stroke:#000;stroke-width:1.045088;stroke-linejoin:round;stroke-dasharray:none"/><path id="reuse-14" d="M31.354 92.539H45.34v13.986H31.354z" style="fill:#000;fill-opacity:1;stroke:#000;stroke-width:1.045088;stroke-linejoin:round;stroke-dasharray:none"/><path id="reuse-15" d="M151.354 92.539h13.986v13.986h-13.986z" style="fill:#000;fill-opacity:1;stroke:#000;stroke-width:1.045088;stroke-linejoin:round;stroke-dasharray:none"/><path id="reuse-16" fill="none" d="M111.354 92.539h13.986v13.986h-13.986zM91.354 92.539h13.986v13.986H91.354z" style="fill:#fff;fill-opacity:0;stroke:#000;stroke-width:1.045088;stroke-linejoin:round;stroke-dasharray:none"/></defs><path d="M5 5h337v337H5z" style="display:inline"/><circle cx="298" cy="40" r="16"/><path fill="none" d="M25.392 86.426h185.755v185.755H25.392z" style="fill:#fff;fill-opacity:0;stroke:#000;stroke-width:2.20483;stroke-linejoin:round" transform="matrix(1.15206 0 0 1.15206 .194 4.452)"/><g style="stroke-width:1.045088;stroke-dasharray:none"><use xlink:href="#reuse-0" style="fill:#fff;fill-opacity:0;stroke:#000;stroke-width:1.045088;stroke-linejoin:round;stroke-dasharray:none" transform="matrix(1.15206 0 0 1.15206 .574 4.216)"/><use xlink:href="#reuse-1" style="fill:#000;fill-opacity:1;stroke:#000;stroke-width:1.045088;stroke-linejoin:round;stroke-dasharray:none" transform="matrix(1.15206 0 0 1.15206 .574 4.216)"/><use xlink:href="#reuse-2" style="fill:#fff;fill-opacity:0;stroke:#000;stroke-width:1.045088;stroke-linejoin:round;stroke-dasharray:none" transform="matrix(1.15206 0 0 1.15206 .574 4.216)"/><use xlink:href="#reuse-3" style="fill:#000;fill-opacity:1;stroke:#000;stroke-width:1.045088;stroke-linejoin:round;stroke-dasharray:none" transform="matrix(1.15206 0 0 1.15206 .574 4.216)"/><use xlink:href="#reuse-4" style="fill:#fff;fill-opacity:0;stroke:#000;stroke-width:1.045088;stroke-linejoin:round;stroke-dasharray:none" transform="matrix(1.15206 0 0 1.15206 .574 4.216)"/></g><g style="stroke-width:1.045088;stroke-dasharray:none"><use xlink:href="#reuse-0" style="fill:#fff;fill-opacity:0;stroke:#000;stroke-width:1.045088;stroke-linejoin:round;stroke-dasharray:none" transform="matrix(1.15206 0 0 1.15206 .574 188.545)"/><use xlink:href="#reuse-1" style="fill:#000;fill-opacity:1;stroke:#000;stroke-width:1.045088;stroke-linejoin:round;stroke-dasharray:none" transform="matrix(1.15206 0 0 1.15206 .574 188.545)"/><use xlink:href="#reuse-2" style="fill:#fff;fill-opacity:0;stroke:#000;stroke-width:1.045088;stroke-linejoin:round;stroke-dasharray:none" transform="matrix(1.15206 0 0 1.15206 .574 188.545)"/><use xlink:href="#reuse-3" style="fill:#000;fill-opacity:1;stroke:#000;stroke-width:1.045088;stroke-linejoin:round;stroke-dasharray:none" transform="matrix(1.15206 0 0 1.15206 .574 188.545)"/><use xlink:href="#reuse-4" style="fill:#fff;fill-opacity:0;stroke:#000;stroke-width:1.045088;stroke-linejoin:round;stroke-dasharray:none" transform="matrix(1.15206 0 0 1.15206 .574 188.545)"/></g><g style="stroke-width:1.045088;stroke-dasharray:none"><use xlink:href="#reuse-5" style="fill:#fff;fill-opacity:0;stroke:#000;stroke-width:1.045088;stroke-linejoin:round;stroke-dasharray:none" transform="matrix(1.15206 0 0 1.15206 .574 165.504)"/><use xlink:href="#reuse-6" style="fill:#000;fill-opacity:1;stroke:#000;stroke-width:1.045088;stroke-linejoin:round;stroke-dasharray:none" transform="matrix(1.15206 0 0 1.15206 .574 165.504)"/><use xlink:href="#reuse-7" style="fill:#fff;fill-opacity:0;stroke:#000;stroke-width:1.045088;stroke-linejoin:round;stroke-dasharray:none" transform="matrix(1.15206 0 0 1.15206 .574 165.504)"/><use xlink:href="#reuse-8" style="fill:#000;fill-opacity:1;stroke:#000;stroke-width:1.045088;stroke-linejoin:round;stroke-dasharray:none" transform="matrix(1.15206 0 0 1.15206 .574 165.504)"/><use xlink:href="#reuse-9" style="fill:#fff;fill-opacity:0;stroke:#000;stroke-width:1.045088;stroke-linejoin:round;stroke-dasharray:none" transform="matrix(1.15206 0 0 1.15206 .574 165.504)"/></g><g style="stroke-width:1.045088;stroke-dasharray:none"><use xlink:href="#reuse-10" style="fill:#000;fill-opacity:1;stroke:#000;stroke-width:1.045088;stroke-linejoin:round;stroke-dasharray:none" transform="matrix(1.15206 0 0 1.15206 .574 142.463)"/><use xlink:href="#reuse-11" style="fill:#fff;fill-opacity:0;stroke:#000;stroke-width:1.045088;stroke-linejoin:round;stroke-dasharray:none" transform="matrix(1.15206 0 0 1.15206 .574 142.463)"/><use xlink:href="#reuse-12" style="fill:#000;fill-opacity:1;stroke:#000;stroke-width:1.045088;stroke-linejoin:round;stroke-dasharray:none" transform="matrix(1.15206 0 0 1.15206 .574 142.463)"/><use xlink:href="#reuse-13" style="fill:#fff;fill-opacity:0;stroke:#000;stroke-width:1.045088;stroke-linejoin:round;stroke-dasharray:none" transform="matrix(1.15206 0 0 1.15206 .574 142.463)"/><use xlink:href="#reuse-14" style="fill:#000;fill-opacity:1;stroke:#000;stroke-width:1.045088;stroke-linejoin:round;stroke-dasharray:none" transform="matrix(1.15206 0 0 1.15206 .574 142.463)"/></g><g style="stroke-width:1.045088;stroke-dasharray:none"><use xlink:href="#reuse-0" style="fill:#fff;fill-opacity:0;stroke:#000;stroke-width:1.045088;stroke-linejoin:round;stroke-dasharray:none" transform="matrix(1.15206 0 0 1.15206 .574 119.422)"/><use xlink:href="#reuse-15" style="fill:#000;fill-opacity:1;stroke:#000;stroke-width:1.045088;stroke-linejoin:round;stroke-dasharray:none" transform="matrix(1.15206 0 0 1.15206 .574 119.422)"/><use xlink:href="#reuse-16" style="fill:#fff;fill-opacity:0;stroke:#000;stroke-width:1.045088;stroke-linejoin:round;stroke-dasharray:none" transform="matrix(1.15206 0 0 1.15206 .574 119.422)"/><use xlink:href="#reuse-3" style="fill:#000;fill-opacity:1;stroke:#000;stroke-width:1.045088;stroke-linejoin:round;stroke-dasharray:none" transform="matrix(1.15206 0 0 1.15206 .574 119.422)"/><use xlink:href="#reuse-4" style="fill:#fff;fill-opacity:0;stroke:#000;stroke-width:1.045088;stroke-linejoin:round;stroke-dasharray:none" transform="matrix(1.15206 0 0 1.15206 .574 119.422)"/></g><g style="stroke-width:1.045088;stroke-dasharray:none"><path fill="none" d="M131.354 92.539h13.986v13.986h-13.986z" style="fill:#fff;fill-opacity:0;stroke:#000;stroke-width:1.045088;stroke-linejoin:round;stroke-dasharray:none" transform="matrix(1.15206 0 0 1.15206 .574 96.38)"/><path d="M191.354 92.539h13.986v13.986h-13.986z" style="fill:#000;fill-opacity:1;stroke:#000;stroke-width:1.045088;stroke-linejoin:round;stroke-dasharray:none" transform="matrix(1.15206 0 0 1.15206 .574 96.38)"/><path fill="none" d="M171.354 92.539h13.986v13.986h-13.986zM151.354 92.539h13.986v13.986h-13.986z" style="fill:#fff;fill-opacity:0;stroke:#000;stroke-width:1.045088;stroke-linejoin:round;stroke-dasharray:none" transform="matrix(1.15206 0 0 1.15206 .574 96.38)"/><path d="M111.354 92.539h13.986v13.986h-13.986z" style="fill:#000;fill-opacity:1;stroke:#000;stroke-width:1.045088;stroke-linejoin:round;stroke-dasharray:none" transform="matrix(1.15206 0 0 1.15206 .574 96.38)"/><path fill="none" d="M91.354 92.539h13.986v13.986H91.354zM71.354 92.539H85.34v13.986H71.354zM51.354 92.539H65.34v13.986H51.354z" style="fill:#fff;fill-opacity:0;stroke:#000;stroke-width:1.045088;stroke-linejoin:round;stroke-dasharray:none" transform="matrix(1.15206 0 0 1.15206 .574 96.38)"/><use xlink:href="#reuse-14" style="fill:#000;fill-opacity:1;stroke:#000;stroke-width:1.045088;stroke-linejoin:round;stroke-dasharray:none" transform="matrix(1.15206 0 0 1.15206 .574 96.38)"/></g><g style="stroke-width:1.045088;stroke-dasharray:none"><use xlink:href="#reuse-0" style="fill:#fff;fill-opacity:0;stroke:#000;stroke-width:1.045088;stroke-linejoin:round;stroke-dasharray:none" transform="matrix(1.15206 0 0 1.15206 .574 73.34)"/><use xlink:href="#reuse-15" style="fill:#000;fill-opacity:1;stroke:#000;stroke-width:1.045088;stroke-linejoin:round;stroke-dasharray:none" transform="matrix(1.15206 0 0 1.15206 .574 73.34)"/><use xlink:href="#reuse-16" style="fill:#fff;fill-opacity:0;stroke:#000;stroke-width:1.045088;stroke-linejoin:round;stroke-dasharray:none" transform="matrix(1.15206 0 0 1.15206 .574 73.34)"/><use xlink:href="#reuse-3" style="fill:#000;fill-opacity:1;stroke:#000;stroke-width:1.045088;stroke-linejoin:round;stroke-dasharray:none" transform="matrix(1.15206 0 0 1.15206 .574 73.34)"/><use xlink:href="#reuse-4" style="fill:#fff;fill-opacity:0;stroke:#000;stroke-width:1.045088;stroke-linejoin:round;stroke-dasharray:none" transform="matrix(1.15206 0 0 1.15206 .574 73.34)"/></g><g style="stroke-width:1.045088;stroke-dasharray:none"><use xlink:href="#reuse-10" style="fill:#000;fill-opacity:1;stroke:#000;stroke-width:1.045088;stroke-linejoin:round;stroke-dasharray:none" transform="matrix(1.15206 0 0 1.15206 .574 50.298)"/><use xlink:href="#reuse-11" style="fill:#fff;fill-opacity:0;stroke:#000;stroke-width:1.045088;stroke-linejoin:round;stroke-dasharray:none" transform="matrix(1.15206 0 0 1.15206 .574 50.298)"/><use xlink:href="#reuse-12" style="fill:#000;fill-opacity:1;stroke:#000;stroke-width:1.045088;stroke-linejoin:round;stroke-dasharray:none" transform="matrix(1.15206 0 0 1.15206 .574 50.298)"/><use xlink:href="#reuse-13" style="fill:#fff;fill-opacity:0;stroke:#000;stroke-width:1.045088;stroke-linejoin:round;stroke-dasharray:none" transform="matrix(1.15206 0 0 1.15206 .574 50.298)"/><use xlink:href="#reuse-14" style="fill:#000;fill-opacity:1;stroke:#000;stroke-width:1.045088;stroke-linejoin:round;stroke-dasharray:none" transform="matrix(1.15206 0 0 1.15206 .574 50.298)"/></g><g style="stroke-width:1.045088;stroke-dasharray:none"><use xlink:href="#reuse-5" style="fill:#fff;fill-opacity:0;stroke:#000;stroke-width:1.045088;stroke-linejoin:round;stroke-dasharray:none" transform="matrix(1.15206 0 0 1.15206 .574 27.257)"/><use xlink:href="#reuse-6" style="fill:#000;fill-opacity:1;stroke:#000;stroke-width:1.045088;stroke-linejoin:round;stroke-dasharray:none" transform="matrix(1.15206 0 0 1.15206 .574 27.257)"/><use xlink:href="#reuse-7" style="fill:#fff;fill-opacity:0;stroke:#000;stroke-width:1.045088;stroke-linejoin:round;stroke-dasharray:none" transform="matrix(1.15206 0 0 1.15206 .574 27.257)"/><use xlink:href="#reuse-8" style="fill:#000;fill-opacity:1;stroke:#000;stroke-width:1.045088;stroke-linejoin:round;stroke-dasharray:none" transform="matrix(1.15206 0 0 1.15206 .574 27.257)"/><use xlink:href="#reuse-9" style="fill:#fff;fill-opacity:0;stroke:#000;stroke-width:1.045088;stroke-linejoin:round;stroke-dasharray:none" transform="matrix(1.15206 0 0 1.15206 .574 27.257)"/></g><path fill="none" d="M42.569 52.029h81.268v27.949H42.569zM141.992 52.144h81.268v27.949h-81.268z" style="fill:#fff;fill-opacity:0;stroke:#000;stroke-width:2.187;stroke-linejoin:round"/><path fill="none" d="M258.612 102.693h65.798v17.159h-65.798zM258.612 278.693h65.798v17.159h-65.798zM258.607 300.771h65.798v17.159h-65.798zM258.612 256.693h65.798v17.159h-65.798zM258.612 234.693h65.798v17.159h-65.798zM258.612 212.693h65.798v17.159h-65.798zM258.612 190.693h65.798v17.159h-65.798zM258.612 168.693h65.798v17.159h-65.798zM258.612 146.693h65.798v17.159h-65.798zM258.612 124.693h65.798v17.159h-65.798z" style="font-variation-settings:normal;vector-effect:none;fill:#fff;fill-opacity:0;stroke:#000;stroke-width:1.5419;stroke-linecap:butt;stroke-linejoin:round;stroke-miterlimit:4;stroke-dasharray:none;stroke-dashoffset:0;stroke-opacity:1;-inkscape-stroke:none;stop-color:#000"/></svg>

<svg xmlns="http://www.w3.org/2000/svg" xmlns:xlink="http://www.w3.org/1999/xlink" xml:space="preserve" fill="none" stroke="#000" stroke-width="2" viewBox="0 0 347 347"><defs><path id="a" fill="#fff" fill-opacity="0" stroke="#000" stroke-dasharray="none" stroke-linejoin="round" stroke-width="1.05" d="M131.35 92.54h13.99v13.98h-13.99zm60 0h13.99v13.98h-13.99zm-20 0h13.99v13.98h-13.99z"/><path id="b" fill="#000" fill-opacity="1" stroke="#000" stroke-dasharray="none" stroke-linejoin="round" stroke-width="1.05" d="M151.35 92.54h13.99v13.98h-13.99zm-40 0h13.99v13.98h-13.99z"/><path id="c" fill="#fff" fill-opacity="0" stroke="#000" stroke-dasharray="none" stroke-linejoin="round" stroke-width="1.05" d="M91.35 92.54h13.99v13.98H91.35z"/><path id="d" fill="#000" fill-opacity="1" stroke="#000" stroke-dasharray="none" stroke-linejoin="round" stroke-width="1.05" d="M71.35 92.54h13.99v13.98H71.35z"/><path id="e" fill="#fff" fill-opacity="0" stroke="#000" stroke-dasharray="none" stroke-linejoin="round" stroke-width="1.05" d="M51.35 92.54h13.99v13.98H51.35zm-20 0h13.99v13.98H31.35z"/><path id="f" fill="#fff" fill-opacity="0" stroke="#000" stroke-dasharray="none" stroke-linejoin="round" stroke-width="1.05" d="M131.35 92.54h13.99v13.98h-13.99zm60 0h13.99v13.98h-13.99z"/><path id="g" fill="#000" fill-opacity="1" stroke="#000" stroke-dasharray="none" stroke-linejoin="round" stroke-width="1.05" d="M171.35 92.54h13.99v13.98h-13.99z"/><path id="h" fill="#fff" fill-opacity="0" stroke="#000" stroke-dasharray="none" stroke-linejoin="round" stroke-width="1.05" d="M151.35 92.54h13.99v13.98h-13.99zm-40 0h13.99v13.98h-13.99zm-20 0h13.99v13.98H91.35zm-20 0h13.99v13.98H71.35z"/><path id="i" fill="#000" fill-opacity="1" stroke="#000" stroke-dasharray="none" stroke-linejoin="round" stroke-width="1.05" d="M51.35 92.54h13.99v13.98H51.35z"/><path id="j" fill="#fff" fill-opacity="0" stroke="#000" stroke-dasharray="none" stroke-linejoin="round" stroke-width="1.05" d="M31.35 92.54h13.99v13.98H31.35z"/><path id="k" fill="#000" fill-opacity="1" stroke="#000" stroke-dasharray="none" stroke-linejoin="round" stroke-width="1.05" d="M131.35 92.54h13.99v13.98h-13.99zm60 0h13.99v13.98h-13.99z"/><path id="l" fill="#fff" fill-opacity="0" stroke="#000" stroke-dasharray="none" stroke-linejoin="round" stroke-width="1.05" d="M171.35 92.54h13.99v13.98h-13.99zm-20 0h13.99v13.98h-13.99zm-40 0h13.99v13.98h-13.99z"/><path id="m" fill="#000" fill-opacity="1" stroke="#000" stroke-dasharray="none" stroke-linejoin="round" stroke-width="1.05" d="M91.35 92.54h13.99v13.98H91.35z"/><path id="n" fill="#fff" fill-opacity="0" stroke="#000" stroke-dasharray="none" stroke-linejoin="round" stroke-width="1.05" d="M71.35 92.54h13.99v13.98H71.35zm-20 0h13.99v13.98H51.35z"/><path id="o" fill="#000" fill-opacity="1" stroke="#000" stroke-dasharray="none" stroke-linejoin="round" stroke-width="1.05" d="M31.35 92.54h13.99v13.98H31.35z"/><path id="p" fill="#000" fill-opacity="1" stroke="#000" stroke-dasharray="none" stroke-linejoin="round" stroke-width="1.05" d="M151.35 92.54h13.99v13.98h-13.99z"/><path id="q" fill="#fff" fill-opacity="0" stroke="#000" stroke-dasharray="none" stroke-linejoin="round" stroke-width="1.05" d="M111.35 92.54h13.99v13.98h-13.99zm-20 0h13.99v13.98H91.35z"/></defs><path d="M5 5h337v337H5z"/><circle cx="298" cy="40" r="16"/><path stroke-linejoin="round" stroke-width="2.53" d="M29.45 104.02h214v214h-214z"/><g stroke-linejoin="round" stroke-width="1.05" transform="matrix(1.15 0 0 1.15 .57 4.22)"><use xlink:href="#a" fill="#fff" fill-opacity="0"/><use xlink:href="#b" fill="#000"/><use xlink:href="#c" fill="#fff" fill-opacity="0"/><use xlink:href="#d" fill="#000"/><use xlink:href="#e" fill="#fff" fill-opacity="0"/></g><g stroke-linejoin="round" stroke-width="1.05" transform="matrix(1.15 0 0 1.15 .57 188.54)"><use xlink:href="#a" fill="#fff" fill-opacity="0"/><use xlink:href="#b" fill="#000"/><use xlink:href="#c" fill="#fff" fill-opacity="0"/><use xlink:href="#d" fill="#000"/><use xlink:href="#e" fill="#fff" fill-opacity="0"/></g><g stroke-linejoin="round" stroke-width="1.05" transform="matrix(1.15 0 0 1.15 .57 165.5)"><use xlink:href="#f" fill="#fff" fill-opacity="0"/><use xlink:href="#g" fill="#000"/><use xlink:href="#h" fill="#fff" fill-opacity="0"/><use xlink:href="#i" fill="#000"/><use xlink:href="#j" fill="#fff" fill-opacity="0"/></g><g stroke-linejoin="round" stroke-width="1.05" transform="matrix(1.15 0 0 1.15 .57 142.46)"><use xlink:href="#k" fill="#000"/><use xlink:href="#l" fill="#fff" fill-opacity="0"/><use xlink:href="#m" fill="#000"/><use xlink:href="#n" fill="#fff" fill-opacity="0"/><use xlink:href="#o" fill="#000"/></g><g stroke-linejoin="round" stroke-width="1.05" transform="matrix(1.15 0 0 1.15 .57 119.42)"><use xlink:href="#a" fill="#fff" fill-opacity="0"/><use xlink:href="#p" fill="#000"/><use xlink:href="#q" fill="#fff" fill-opacity="0"/><use xlink:href="#d" fill="#000"/><use xlink:href="#e" fill="#fff" fill-opacity="0"/></g><g stroke-linejoin="round" stroke-width="1.05" transform="matrix(1.15 0 0 1.15 .57 96.38)"><path d="M131.35 92.54h13.99v13.98h-13.99z"/><path fill="#000" d="M191.35 92.54h13.99v13.98h-13.99z"/><path d="M171.35 92.54h13.99v13.98h-13.99zm-20 0h13.99v13.98h-13.99z"/><path fill="#000" d="M111.35 92.54h13.99v13.98h-13.99z"/><path d="M91.35 92.54h13.99v13.98H91.35zm-20 0h13.99v13.98H71.35zm-20 0h13.99v13.98H51.35z"/><use xlink:href="#o" fill="#000"/></g><g stroke-linejoin="round" stroke-width="1.05" transform="matrix(1.15 0 0 1.15 .57 73.34)"><use xlink:href="#a" fill="#fff" fill-opacity="0"/><use xlink:href="#p" fill="#000"/><use xlink:href="#q" fill="#fff" fill-opacity="0"/><use xlink:href="#d" fill="#000"/><use xlink:href="#e" fill="#fff" fill-opacity="0"/></g><g stroke-linejoin="round" stroke-width="1.05" transform="matrix(1.15 0 0 1.15 .57 50.3)"><use xlink:href="#k" fill="#000"/><use xlink:href="#l" fill="#fff" fill-opacity="0"/><use xlink:href="#m" fill="#000"/><use xlink:href="#n" fill="#fff" fill-opacity="0"/><use xlink:href="#o" fill="#000"/></g><g stroke-linejoin="round" stroke-width="1.05" transform="matrix(1.15 0 0 1.15 .57 27.26)"><use xlink:href="#f" fill="#fff" fill-opacity="0"/><use xlink:href="#g" fill="#000"/><use xlink:href="#h" fill="#fff" fill-opacity="0"/><use xlink:href="#i" fill="#000"/><use xlink:href="#j" fill="#fff" fill-opacity="0"/></g><path stroke-linejoin="round" stroke-width="2.19" d="M42.57 52.03h81.27v27.95H42.57zm99.42.11h81.27V80.1h-81.27z"/><path stroke-linejoin="round" stroke-width="1.54" d="M258.61 102.7h65.8v17.15h-65.8zm0 176h65.8v17.15h-65.8zm0 22.07h65.8v17.16h-65.8zm0-44.08h65.8v17.16h-65.8zm0-22h65.8v17.16h-65.8zm0-22h65.8v17.16h-65.8zm0-22h65.8v17.16h-65.8zm0-22h65.8v17.16h-65.8zm0-22h65.8v17.16h-65.8zm0-22h65.8v17.16h-65.8z"/></svg>
